icons/pop_pyr_stg1.svg

<?xml version="1.0" standalone="no"?>
<!DOCTYPE svg PUBLIC "-//W3C//DTD SVG 20010904//EN"
 "http://www.w3.org/TR/2001/REC-SVG-20010904/DTD/svg10.dtd">
<svg version="1.0" xmlns="http://www.w3.org/2000/svg"
 width="122.000000pt" height="153.000000pt" viewBox="0 0 122.000000 153.000000"
 preserveAspectRatio="xMidYMid meet">

<g transform="translate(0.000000,153.000000) scale(0.100000,-0.100000)"
fill="#000000" stroke="none">
<path d="M596 1288 c-3 -13 -7 -74 -10 -135 -6 -121 -31 -301 -49 -343 -5 -14
-9 -30 -8 -37 3 -20 -60 -205 -99 -290 -48 -104 -125 -223 -144 -223 -9 0 -13
-6 -10 -14 6 -16 -112 -142 -163 -173 -17 -10 -29 -23 -25 -28 10 -14 1032
-13 1032 0 0 6 -23 28 -50 49 -69 53 -142 136 -135 154 3 9 0 12 -8 9 -17 -6
-101 126 -151 234 -93 204 -156 504 -156 739 0 68 -15 103 -24 58z m70 -557
c68 -251 181 -456 328 -600 l74 -71 -229 0 -229 0 1 463 c1 433 2 457 15 382
8 -44 26 -122 40 -174z m-66 -221 l0 -450 -229 0 -229 0 65 62 c36 35 87 92
114 128 68 91 162 279 199 401 18 57 35 111 38 119 3 8 6 22 7 30 5 36 28 160
31 160 2 0 3 -202 4 -450z"/>
<path d="M620 790 c0 -5 5 -10 11 -10 5 0 7 5 4 10 -3 6 -8 10 -11 10 -2 0 -4
-4 -4 -10z"/>
<path d="M40 790 c0 -5 5 -10 11 -10 5 0 7 5 4 10 -3 6 -8 10 -11 10 -2 0 -4
-4 -4 -10z"/>
<path d="M70 790 c0 -5 5 -10 10 -10 6 0 10 5 10 10 0 6 -4 10 -10 10 -5 0
-10 -4 -10 -10z"/>
<path d="M105 790 c-3 -5 -1 -10 4 -10 6 0 11 5 11 10 0 6 -2 10 -4 10 -3 0
-8 -4 -11 -10z"/>
<path d="M200 790 c0 -5 5 -10 11 -10 5 0 7 5 4 10 -3 6 -8 10 -11 10 -2 0 -4
-4 -4 -10z"/>
<path d="M235 790 c-3 -5 -1 -10 4 -10 6 0 11 5 11 10 0 6 -2 10 -4 10 -3 0
-8 -4 -11 -10z"/>
<path d="M330 790 c0 -5 5 -10 11 -10 5 0 7 5 4 10 -3 6 -8 10 -11 10 -2 0 -4
-4 -4 -10z"/>
<path d="M360 790 c0 -5 5 -10 10 -10 6 0 10 5 10 10 0 6 -4 10 -10 10 -5 0
-10 -4 -10 -10z"/>
<path d="M490 790 c0 -5 5 -10 10 -10 6 0 10 5 10 10 0 6 -4 10 -10 10 -5 0
-10 -4 -10 -10z"/>
<path d="M750 790 c0 -5 5 -10 11 -10 5 0 7 5 4 10 -3 6 -8 10 -11 10 -2 0 -4
-4 -4 -10z"/>
<path d="M780 790 c0 -5 5 -10 10 -10 6 0 10 5 10 10 0 6 -4 10 -10 10 -5 0
-10 -4 -10 -10z"/>
<path d="M880 790 c0 -5 5 -10 11 -10 5 0 7 5 4 10 -3 6 -8 10 -11 10 -2 0 -4
-4 -4 -10z"/>
<path d="M910 790 c0 -5 5 -10 10 -10 6 0 10 5 10 10 0 6 -4 10 -10 10 -5 0
-10 -4 -10 -10z"/>
<path d="M945 790 c-3 -5 -1 -10 4 -10 6 0 11 5 11 10 0 6 -2 10 -4 10 -3 0
-8 -4 -11 -10z"/>
<path d="M1040 790 c0 -5 5 -10 11 -10 5 0 7 5 4 10 -3 6 -8 10 -11 10 -2 0
-4 -4 -4 -10z"/>
<path d="M1075 790 c-3 -5 -1 -10 4 -10 6 0 11 5 11 10 0 6 -2 10 -4 10 -3 0
-8 -4 -11 -10z"/>
<path d="M1170 790 c0 -5 5 -10 11 -10 5 0 7 5 4 10 -3 6 -8 10 -11 10 -2 0
-4 -4 -4 -10z"/>
</g>
</svg>

<?xml version="1.0" encoding="utf-8"?>
<!-- Generator: Adobe Illustrator 25.4.1, SVG Export Plug-In . SVG Version: 6.00 Build 0)  -->
<svg version="1.1" id="Ebene_1" xmlns="http://www.w3.org/2000/svg" xmlns:xlink="http://www.w3.org/1999/xlink" x="0px" y="0px"
	 viewBox="0 0 122 153" style="enable-background:new 0 0 122 153;" xml:space="preserve">
<style type="text/css">
	.st0{fill:#BEBADA;}
</style>
<rect class="st0" width="122" height="153"/>
<g transform="translate(0.000000,153.000000) scale(0.100000,-0.100000)">
	<path d="M596,1288c-3-13-7-74-10-135c-6-121-31-301-49-343c-5-14-9-30-8-37c3-20-60-205-99-290c-48-104-125-223-144-223
		c-9,0-13-6-10-14c6-16-112-142-163-173C96,63,84,50,88,45c10-14,1032-13,1032,0c0,6-23,28-50,49c-69,53-142,136-135,154
		c3,9,0,12-8,9c-17-6-101,126-151,234c-93,204-156,504-156,739C620,1298,605,1333,596,1288z M666,731c68-251,181-456,328-600l74-71
		H839H610l1,463c1,433,2,457,15,382C634,861,652,783,666,731z M600,510V60H371H142l65,62c36,35,87,92,114,128c68,91,162,279,199,401
		c18,57,35,111,38,119s6,22,7,30c5,36,28,160,31,160C598,960,599,758,600,510z"/>
	<path d="M620,790c0-5,5-10,11-10c5,0,7,5,4,10c-3,6-8,10-11,10C622,800,620,796,620,790z"/>
	<path d="M40,790c0-5,5-10,11-10c5,0,7,5,4,10c-3,6-8,10-11,10C42,800,40,796,40,790z"/>
	<path d="M70,790c0-5,5-10,10-10c6,0,10,5,10,10c0,6-4,10-10,10C75,800,70,796,70,790z"/>
	<path d="M105,790c-3-5-1-10,4-10c6,0,11,5,11,10c0,6-2,10-4,10C113,800,108,796,105,790z"/>
	<path d="M200,790c0-5,5-10,11-10c5,0,7,5,4,10c-3,6-8,10-11,10C202,800,200,796,200,790z"/>
	<path d="M235,790c-3-5-1-10,4-10c6,0,11,5,11,10c0,6-2,10-4,10C243,800,238,796,235,790z"/>
	<path d="M330,790c0-5,5-10,11-10c5,0,7,5,4,10c-3,6-8,10-11,10C332,800,330,796,330,790z"/>
	<path d="M360,790c0-5,5-10,10-10c6,0,10,5,10,10c0,6-4,10-10,10C365,800,360,796,360,790z"/>
	<path d="M490,790c0-5,5-10,10-10c6,0,10,5,10,10c0,6-4,10-10,10C495,800,490,796,490,790z"/>
	<path d="M750,790c0-5,5-10,11-10c5,0,7,5,4,10c-3,6-8,10-11,10C752,800,750,796,750,790z"/>
	<path d="M780,790c0-5,5-10,10-10c6,0,10,5,10,10c0,6-4,10-10,10C785,800,780,796,780,790z"/>
	<path d="M880,790c0-5,5-10,11-10c5,0,7,5,4,10c-3,6-8,10-11,10C882,800,880,796,880,790z"/>
	<path d="M910,790c0-5,5-10,10-10c6,0,10,5,10,10c0,6-4,10-10,10C915,800,910,796,910,790z"/>
	<path d="M945,790c-3-5-1-10,4-10c6,0,11,5,11,10c0,6-2,10-4,10C953,800,948,796,945,790z"/>
	<path d="M1040,790c0-5,5-10,11-10c5,0,7,5,4,10c-3,6-8,10-11,10C1042,800,1040,796,1040,790z"/>
	<path d="M1075,790c-3-5-1-10,4-10c6,0,11,5,11,10c0,6-2,10-4,10C1083,800,1078,796,1075,790z"/>
	<path d="M1170,790c0-5,5-10,11-10c5,0,7,5,4,10c-3,6-8,10-11,10C1172,800,1170,796,1170,790z"/>
</g>
</svg>
